lib/assets/icons/svg/outlined-action-phone.svg

<svg xmlns="http://www.w3.org/2000/svg" viewBox="0 0 24 24"><path d="M16.744 19.755a2.936 2.936 0 0 1-1-.17l-.82-.3a17.55 17.55 0 0 1-10.55-11.12 2.779 2.779 0 0 1 .65-2.77l.56-.58a1.87 1.87 0 0 1 2.63-.06l1.22 1.24a3 3 0 0 1 .82 2.81l-.06.3a1.996 1.996 0 0 0 .24 1.49 8.244 8.244 0 0 0 2.78 2.82l.23.14a2 2 0 0 0 1.6.22 3.061 3.061 0 0 1 2.95.79l1.23 1.19a1.87 1.87 0 0 1 0 2.61l-.5.51a2.759 2.759 0 0 1-1.98.88zm-9.83-14.5a.87.87 0 0 0-.61.26l-.56.58a1.8 1.8 0 0 0-.42 1.77 16.52 16.52 0 0 0 10 10.48l.82.3c.66.24 1.399.072 1.89-.43l.5-.52a.86.86 0 0 0 0-1.2l-1.22-1.22a2.06 2.06 0 0 0-2-.53 3.001 3.001 0 0 1-2.37-.33l-.2-.15a9.084 9.084 0 0 1-3.09-3.1 3.092 3.092 0 0 1-.39-2.28l.07-.29a2 2 0 0 0-.59-1.84l-1.2-1.2a.847.847 0 0 0-.63-.3z"/></svg>

<svg viewBox="0 0 24 24" xmlns="http://www.w3.org/2000/svg">
  <path  d="M 16.744 19.755 C 16.403 19.757 16.065 19.699 15.744 19.585 L 14.924 19.285 C 9.889 17.391 6.001 13.293 4.374 8.165 C 4.066 7.192 4.315 6.129 5.024 5.395 L 5.584 4.815 C 6.296 4.078 7.469 4.051 8.214 4.755 L 9.434 5.995 C 10.177 6.726 10.487 7.789 10.254 8.805 L 10.194 9.105 C 10.076 9.614 10.162 10.149 10.434 10.595 C 11.118 11.747 12.072 12.715 13.214 13.415 L 13.444 13.555 C 13.923 13.85 14.503 13.93 15.044 13.775 C 16.098 13.494 17.222 13.795 17.994 14.565 L 19.224 15.755 C 19.932 16.481 19.932 17.639 19.224 18.365 L 18.724 18.875 C 18.212 19.426 17.496 19.744 16.744 19.755 Z M 6.914 5.255 C 6.684 5.258 6.465 5.351 6.304 5.515 L 5.744 6.095 C 5.294 6.566 5.134 7.242 5.324 7.865 C 6.866 12.711 10.555 16.577 15.324 18.345 L 16.144 18.645 C 16.804 18.885 17.543 18.717 18.034 18.215 L 18.534 17.695 L 18.534 17.695 C 18.859 17.361 18.859 16.829 18.534 16.495 L 17.314 15.275 C 16.791 14.752 16.027 14.55 15.314 14.745 C 14.512 14.968 13.654 14.849 12.944 14.415 L 12.744 14.265 C 11.477 13.499 10.416 12.435 9.654 11.165 C 9.234 10.484 9.094 9.667 9.264 8.885 L 9.334 8.595 C 9.466 7.921 9.244 7.226 8.744 6.755 L 7.544 5.555 C 7.387 5.369 7.157 5.26 6.914 5.255 Z"/>
</svg>
